X: 237
T: The Young Lady
B: O'Neill's 237
N: "Moderate"
N: "Collected by J.O'Neill"
Z: 1997 by John Chambers <jc@trillian.mit.edu>
M: 3/4
L: 1/8
K:G
D GA \
|BA GB de|fe dB cc|B2 AG BA|A3 D GA|
|BA GB de|fe dB cc|B2 GBA GG|G3||
||d dd \
|f2 ed df|g2 Bd fe|e2 dB GB|A3 D GA|
|BA GB de|fe dB cc|B2 GBA GG|G3||
